src/public/icons/card.svg

<svg viewBox="0 0 30 30" fill="none"
  xmlns="http://www.w3.org/2000/svg">
  <path d="M4.80005 9.0499C4.80005 7.17213 6.32228 5.6499 8.20005 5.6499H21.8C23.6778 5.6499 25.2 7.17213 25.2 9.0499V10.1124H4.80005V9.0499Z" fill="#706b6d"/>
  <path d="M25.2 13.5124V11.3874H4.80005V13.5124H25.2Z" fill="#706b6d"/>
  <path fill-rule="evenodd" clip-rule="evenodd" d="M25.2 14.7874H4.80005V20.9499C4.80005 22.8277 6.32228 24.3499 8.20005 24.3499H21.8C23.6778 24.3499 25.2 22.8277 25.2 20.9499V14.7874ZM9.90005 18.6124C9.54797 18.6124 9.26255 18.8978 9.26255 19.2499C9.26255 19.602 9.54797 19.8874 9.90005 19.8874H11.6C11.9521 19.8874 12.2375 19.602 12.2375 19.2499C12.2375 18.8978 11.9521 18.6124 11.6 18.6124H9.90005Z" fill="#706b6d"/>
</svg>

<svg xmlns="http://www.w3.org/2000/svg" fill="none" viewBox="0 0 30 30"><path fill="#706b6d" d="M4.8 9.05a3.4 3.4 0 0 1 3.4-3.4h13.6a3.4 3.4 0 0 1 3.4 3.4v1.062H4.8zm20.4 4.462v-2.125H4.8v2.125z"/><path fill="#706b6d" fill-rule="evenodd" d="M25.2 14.787H4.8v6.163a3.4 3.4 0 0 0 3.4 3.4h13.6a3.4 3.4 0 0 0 3.4-3.4zM9.9 18.612a.637.637 0 1 0 0 1.275h1.7a.637.637 0 1 0 0-1.275z" clip-rule="evenodd"/></svg>
